X:163
T:Alstone Slow March. RH.163
R:March
C:M.B.Hodgson.
S:Rev.R.Harrison’s MS,c1815,Cumbria
O:England
A:Temple Sowerby,Cumbria
Z:vmp.Simon Wilson. Review PJH, 2008.
M:C|
L:1/8
Q:1/2=60
K:G
g>a|b2b>b b2a>b|c’>ba>g g>fe>d|\
g>dg>b d’2c’b|a2a>a a2g>a|!
b2b>b b2a>b|c’bag gfed|\
g>dg>b d’2e’a|b2a2 g2:|!
|:g>a|gdga g2a2|baag gfed|\
d>Bd>e g3a|b>aa>a a3g|!
g>a b>c’ c’3b|c’bag gfed|\
a>dg>b d’2e’c’|b2a2 g2:|

